src/img/draw.svg

<svg width="57" height="55" viewBox="0 0 57 55" fill="none" xmlns="http://www.w3.org/2000/svg">
<path d="M30.4 11C29.6484 11 28.9137 11.215 28.2888 11.6179C27.6639 12.0208 27.1769 12.5935 26.8892 13.2635C26.6016 13.9335 26.5264 14.6707 26.673 15.382C26.8196 16.0933 27.1815 16.7466 27.713 17.2594C28.2444 17.7722 28.9215 18.1214 29.6586 18.2629C30.3958 18.4044 31.1598 18.3317 31.8542 18.0542C32.5485 17.7767 33.142 17.3067 33.5596 16.7038C33.9771 16.1008 34.2 15.3919 34.2 14.6667C34.2 13.6942 33.7996 12.7616 33.087 12.0739C32.3744 11.3863 31.4078 11 30.4 11ZM30.4 16.5C30.0242 16.5 29.6569 16.3925 29.3444 16.191C29.032 15.9896 28.7884 15.7032 28.6446 15.3682C28.5008 15.0332 28.4632 14.6646 28.5365 14.309C28.6098 13.9534 28.7908 13.6267 29.0565 13.3703C29.3222 13.1139 29.6608 12.9393 30.0293 12.8686C30.3979 12.7978 30.7799 12.8341 31.1271 12.9729C31.4743 13.1116 31.771 13.3466 31.9798 13.6481C32.1886 13.9496 32.3 14.3041 32.3 14.6667C32.3 15.1529 32.0998 15.6192 31.7435 15.963C31.3872 16.3068 30.9039 16.5 30.4 16.5Z" fill="url(#paint0_linear)"/>
<path d="M38.95 15.5833C38.3863 15.5833 37.8353 15.7446 37.3666 16.0468C36.8979 16.349 36.5327 16.7785 36.3169 17.2809C36.1012 17.7834 36.0448 18.3364 36.1548 18.8698C36.2647 19.4033 36.5362 19.8933 36.9347 20.2779C37.3333 20.6625 37.8411 20.9244 38.394 21.0305C38.9468 21.1366 39.5199 21.0821 40.0406 20.874C40.5614 20.6659 41.0065 20.3134 41.3197 19.8611C41.6329 19.4089 41.8 18.8772 41.8 18.3333C41.8 17.604 41.4997 16.9045 40.9653 16.3888C40.4308 15.8731 39.7059 15.5833 38.95 15.5833ZM38.95 19.25C38.7621 19.25 38.5784 19.1962 38.4222 19.0955C38.266 18.9948 38.1442 18.8516 38.0723 18.6841C38.0004 18.5166 37.9816 18.3323 38.0183 18.1545C38.0549 17.9767 38.1454 17.8133 38.2783 17.6851C38.4111 17.5569 38.5804 17.4696 38.7647 17.4343C38.9489 17.3989 39.14 17.4171 39.3135 17.4864C39.4871 17.5558 39.6355 17.6733 39.7399 17.8241C39.8443 17.9748 39.9 18.152 39.9 18.3333C39.9 18.5764 39.7999 18.8096 39.6218 18.9815C39.4436 19.1534 39.202 19.25 38.95 19.25Z" fill="url(#paint1_linear)"/>
<path d="M38.95 25.6667C38.95 26.2106 39.1171 26.7422 39.4303 27.1945C39.7435 27.6467 40.1886 27.9992 40.7094 28.2073C41.2301 28.4155 41.8032 28.4699 42.356 28.3638C42.9089 28.2577 43.4167 27.9958 43.8153 27.6112C44.2138 27.2266 44.4853 26.7366 44.5952 26.2032C44.7052 25.6697 44.6488 25.1168 44.4331 24.6143C44.2174 24.1118 43.8521 23.6823 43.3834 23.3801C42.9147 23.0779 42.3637 22.9167 41.8 22.9167C41.0441 22.9167 40.3192 23.2064 39.7847 23.7221C39.2503 24.2378 38.95 24.9373 38.95 25.6667ZM41.8 24.75C41.9879 24.75 42.1716 24.8038 42.3278 24.9045C42.484 25.0052 42.6058 25.1484 42.6777 25.3159C42.7496 25.4834 42.7684 25.6677 42.7318 25.8455C42.6951 26.0233 42.6046 26.1866 42.4718 26.3148C42.3389 26.443 42.1696 26.5303 41.9853 26.5657C41.8011 26.6011 41.61 26.5829 41.4365 26.5135C41.2629 26.4442 41.1145 26.3267 41.0101 26.1759C40.9057 26.0252 40.85 25.848 40.85 25.6667C40.85 25.4235 40.9501 25.1904 41.1283 25.0185C41.3064 24.8466 41.548 24.75 41.8 24.75Z" fill="url(#paint2_linear)"/>
<path d="M54.15 0H2.85C2.09483 0.00217625 1.37123 0.292606 0.837237 0.80786C0.303247 1.32311 0.00225539 2.02132 0 2.75V46.75C0.00225539 47.4787 0.303247 48.1769 0.837237 48.6921C1.37123 49.2074 2.09483 49.4978 2.85 49.5H21.0235L18.2115 53.5791C18.1135 53.715 18.0571 53.8747 18.0487 54.0401C18.0403 54.2054 18.0803 54.3697 18.164 54.5141C18.2435 54.6616 18.3636 54.785 18.5111 54.8707C18.6586 54.9564 18.8278 55.0012 19 55H38C38.1722 55.0012 38.3414 54.9564 38.4889 54.8707C38.6364 54.785 38.7566 54.6616 38.836 54.5141C38.9197 54.3697 38.9597 54.2054 38.9513 54.0401C38.9429 53.8747 38.8865 53.715 38.7885 53.5791L35.9765 49.5H54.15C54.9052 49.4978 55.6288 49.2074 56.1628 48.6921C56.6968 48.1769 56.9977 47.4787 57 46.75V2.75C56.9977 2.02132 56.6968 1.32311 56.1628 0.80786C55.6288 0.292606 54.9052 0.00217625 54.15 0ZM36.2235 53.1666H20.7765L23.313 49.5H33.687L36.2235 53.1666ZM55.1 46.75C55.1 46.9931 54.9999 47.2263 54.8218 47.3982C54.6436 47.5701 54.402 47.6666 54.15 47.6666H2.85C2.59804 47.6666 2.35641 47.5701 2.17825 47.3982C2.00009 47.2263 1.9 46.9931 1.9 46.75V44H55.1V46.75ZM55.1 42.1666H1.9V2.75C1.9 2.50688 2.00009 2.27373 2.17825 2.10182C2.35641 1.92991 2.59804 1.83333 2.85 1.83333H54.15C54.402 1.83333 54.6436 1.92991 54.8218 2.10182C54.9999 2.27373 55.1 2.50688 55.1 2.75V42.1666Z" fill="url(#paint3_linear)"/>
<path d="M32.6135 32.5416L22.1635 15.0791C22.1012 14.9739 22.0179 14.8817 21.9185 14.8077C21.819 14.7338 21.7053 14.6796 21.584 14.6483C21.3402 14.5864 21.0809 14.6193 20.862 14.7399L17.575 16.5733C17.3571 16.696 17.198 16.8965 17.1322 17.1316C17.0664 17.3666 17.0992 17.6172 17.2235 17.8291L27.6735 35.2916C27.8036 35.5005 28.0105 35.6543 28.253 35.7224C28.334 35.7406 28.4169 35.7498 28.5 35.7499C28.6659 35.7474 28.8288 35.7065 28.975 35.6308L32.262 33.7974C32.3709 33.7375 32.4664 33.6575 32.543 33.5618C32.6197 33.4662 32.676 33.3568 32.7086 33.2401C32.7413 33.1234 32.7497 33.0016 32.7334 32.8817C32.7171 32.7618 32.6763 32.6462 32.6135 32.5416ZM28.8515 33.5774L19.3515 17.7008L20.995 16.7841L30.495 32.6608L28.8515 33.5774Z" fill="url(#paint4_linear)"/>
<path d="M20.14 9.85415L19.2375 8.35082C18.8071 7.63282 18.1834 7.04052 17.4325 6.63665L13.509 4.53748C13.3649 4.46011 13.2024 4.42027 13.0375 4.42188C12.8726 4.42349 12.711 4.46649 12.5685 4.54665C12.4272 4.62679 12.3094 4.74042 12.2262 4.87676C12.1431 5.01311 12.0974 5.16767 12.0935 5.32582L12.0175 9.65248C12.0061 10.4816 12.2259 11.2985 12.654 12.0175L13.5565 13.5208C13.9352 14.1521 14.5579 14.6128 15.288 14.8018C16.0182 14.9908 16.7962 14.8927 17.4515 14.5291L19.095 13.6125C19.4195 13.4321 19.704 13.1917 19.9322 12.9051C20.1604 12.6185 20.3278 12.2914 20.4248 11.9423C20.5219 11.5933 20.5467 11.2292 20.4978 10.8709C20.4489 10.5126 20.3274 10.1671 20.14 9.85415ZM18.582 11.4675C18.552 11.5843 18.4978 11.694 18.4227 11.7901C18.3476 11.8862 18.2531 11.9667 18.145 12.0266L16.5015 12.9433C16.2819 13.0633 16.0222 13.0949 15.7786 13.0314C15.535 12.968 15.3271 12.8145 15.2 12.6041L14.2975 11.1008C14.0393 10.6693 13.9079 10.1781 13.9175 9.67998L13.965 6.88415L16.511 8.24082C16.9619 8.48188 17.3362 8.83678 17.594 9.26748L18.487 10.7708C18.5514 10.8745 18.5931 10.9898 18.6094 11.1096C18.6258 11.2295 18.6164 11.3513 18.582 11.4675Z" fill="url(#paint5_linear)"/>
<path d="M25.0164 9.13733C28.3888 7.98808 32.0612 7.95155 35.4575 9.03347C38.8538 10.1154 41.7818 12.2545 43.7822 15.1154C45.7826 17.9762 46.7423 21.3968 46.5106 24.8407C46.2789 28.2845 44.869 31.5567 42.5021 34.144C42.144 33.0178 41.4214 32.0321 40.4402 31.3313C39.459 30.6304 38.2708 30.2515 37.05 30.25C36.7981 30.25 36.5564 30.3466 36.3783 30.5185C36.2001 30.6904 36.1 30.9235 36.1 31.1667C36.1 31.4098 36.2001 31.6429 36.3783 31.8148C36.5564 31.9867 36.7981 32.0833 37.05 32.0833C38.0579 32.0833 39.0244 32.4696 39.737 33.1573C40.4497 33.8449 40.85 34.7775 40.85 35.75C40.8506 35.8371 40.8442 35.9241 40.831 36.0103C40.8026 36.1964 40.8341 36.3864 40.9214 36.5546C41.0087 36.7228 41.1475 36.861 41.3189 36.9505C41.4904 37.0399 41.6862 37.0764 41.8799 37.0548C42.0735 37.0332 42.2556 36.9547 42.4014 36.8298C45.5232 34.1447 47.5818 30.4969 48.2256 26.5097C48.8693 22.5225 48.0582 18.4433 45.9309 14.9691C43.8035 11.4949 40.4919 8.84128 36.5619 7.46162C32.6319 6.08197 28.3273 6.06189 24.3837 7.40483C24.146 7.48579 23.9513 7.65455 23.8425 7.87399C23.7338 8.09343 23.7198 8.34557 23.8037 8.57495C23.8876 8.80433 24.0625 8.99216 24.2899 9.09711C24.5174 9.20206 24.7787 9.21554 25.0164 9.13458V9.13733Z" fill="url(#paint6_linear)"/>
<path d="M23.0461 33.0312C21.5997 32.6574 20.2437 32.0123 19.0557 31.1327C17.8677 30.2532 16.8709 29.1564 16.1223 27.9051C15.3736 26.6538 14.8878 25.2724 14.6926 23.8399C14.4973 22.4073 14.5965 20.9517 14.9844 19.5562C15.0206 19.4388 15.032 19.3156 15.018 19.1939C15.004 19.0722 14.9649 18.9544 14.903 18.8475C14.8411 18.7406 14.7576 18.6468 14.6574 18.5715C14.5573 18.4963 14.4425 18.4412 14.3199 18.4095C14.1974 18.3777 14.0694 18.37 13.9437 18.3868C13.818 18.4036 13.697 18.4445 13.588 18.5071C13.4789 18.5697 13.384 18.6528 13.3087 18.7514C13.2335 18.8501 13.1795 18.9622 13.1499 19.0813C12.241 22.3689 12.7208 25.8702 14.484 28.8169C16.2472 31.7636 19.1498 33.9151 22.5549 34.7994C22.6348 34.8208 22.7172 34.8322 22.8 34.8333C23.0305 34.8332 23.2531 34.7523 23.4262 34.6055C23.5994 34.4589 23.7115 34.2564 23.7414 34.0359C23.7714 33.8154 23.7173 33.592 23.5892 33.4071C23.4611 33.2223 23.2687 33.0886 23.0461 33.0312Z" fill="url(#paint7_linear)"/>
<defs>
<linearGradient id="paint0_linear" x1="28.5" y1="0" x2="28.5" y2="55" gradientUnits="userSpaceOnUse">
<stop stop-color="#36B1FF"/>
<stop offset="1" stop-color="#8843FB"/>
</linearGradient>
<linearGradient id="paint1_linear" x1="28.5" y1="0" x2="28.5" y2="55" gradientUnits="userSpaceOnUse">
<stop stop-color="#36B1FF"/>
<stop offset="1" stop-color="#8843FB"/>
</linearGradient>
<linearGradient id="paint2_linear" x1="28.5" y1="0" x2="28.5" y2="55" gradientUnits="userSpaceOnUse">
<stop stop-color="#36B1FF"/>
<stop offset="1" stop-color="#8843FB"/>
</linearGradient>
<linearGradient id="paint3_linear" x1="28.5" y1="0" x2="28.5" y2="55" gradientUnits="userSpaceOnUse">
<stop stop-color="#36B1FF"/>
<stop offset="1" stop-color="#8843FB"/>
</linearGradient>
<linearGradient id="paint4_linear" x1="28.5" y1="0" x2="28.5" y2="55" gradientUnits="userSpaceOnUse">
<stop stop-color="#36B1FF"/>
<stop offset="1" stop-color="#8843FB"/>
</linearGradient>
<linearGradient id="paint5_linear" x1="28.5" y1="0" x2="28.5" y2="55" gradientUnits="userSpaceOnUse">
<stop stop-color="#36B1FF"/>
<stop offset="1" stop-color="#8843FB"/>
</linearGradient>
<linearGradient id="paint6_linear" x1="28.5" y1="0" x2="28.5" y2="55" gradientUnits="userSpaceOnUse">
<stop stop-color="#36B1FF"/>
<stop offset="1" stop-color="#8843FB"/>
</linearGradient>
<linearGradient id="paint7_linear" x1="28.5" y1="0" x2="28.5" y2="55" gradientUnits="userSpaceOnUse">
<stop stop-color="#36B1FF"/>
<stop offset="1" stop-color="#8843FB"/>
</linearGradient>
</defs>
</svg>

<svg width="57" height="55" fill="none" xmlns="http://www.w3.org/2000/svg"><path d="M30.4 11c-.752 0-1.486.215-2.111.618a3.699 3.699 0 0 0-1.4 1.646 3.548 3.548 0 0 0-.216 2.118 3.628 3.628 0 0 0 1.04 1.877 3.845 3.845 0 0 0 1.946 1.004 3.929 3.929 0 0 0 2.195-.209 3.775 3.775 0 0 0 1.706-1.35 3.58 3.58 0 0 0 .64-2.037c0-.973-.4-1.905-1.113-2.593A3.871 3.871 0 0 0 30.4 11Zm0 5.5a1.95 1.95 0 0 1-1.056-.309 1.85 1.85 0 0 1-.7-.823 1.774 1.774 0 0 1-.107-1.059c.073-.356.254-.682.52-.939.265-.256.604-.43.972-.501a1.96 1.96 0 0 1 1.098.104c.347.139.644.374.853.675a1.788 1.788 0 0 1-.236 2.315c-.357.344-.84.537-1.344.537Z" fill="url(#a)"/><path d="M38.95 15.583c-.564 0-1.115.162-1.583.464a2.775 2.775 0 0 0-1.05 1.234 2.66 2.66 0 0 0-.162 1.589c.11.533.381 1.023.78 1.408.398.385.906.646 1.459.753a2.947 2.947 0 0 0 1.647-.157 2.83 2.83 0 0 0 1.279-1.013c.313-.452.48-.984.48-1.528a2.7 2.7 0 0 0-.835-1.944 2.904 2.904 0 0 0-2.015-.806Zm0 3.667a.975.975 0 0 1-.528-.154.925.925 0 0 1-.35-.412.886.886 0 0 1-.054-.53.907.907 0 0 1 .26-.469.982.982 0 0 1 1.035-.199.95.95 0 0 1 .427.338.894.894 0 0 1-.118 1.157.968.968 0 0 1-.672.269Z" fill="url(#b)"/><path d="M38.95 25.667c0 .544.167 1.075.48 1.527a2.83 2.83 0 0 0 1.28 1.013c.52.209 1.093.263 1.646.157a2.883 2.883 0 0 0 1.46-.753c.398-.384.67-.874.78-1.408a2.66 2.66 0 0 0-.163-1.589 2.774 2.774 0 0 0-1.05-1.234 2.924 2.924 0 0 0-1.583-.463c-.756 0-1.48.29-2.015.805a2.702 2.702 0 0 0-.835 1.945Zm2.85-.917a.98.98 0 0 1 .528.154.927.927 0 0 1 .35.412.887.887 0 0 1-.206.999.981.981 0 0 1-1.035.199.943.943 0 0 1-.427-.338.894.894 0 0 1 .118-1.157.968.968 0 0 1 .672-.269Z" fill="url(#c)"/><path d="M54.15 0H2.85A2.912 2.912 0 0 0 .837.808 2.71 2.71 0 0 0 0 2.75v44a2.71 2.71 0 0 0 .837 1.942 2.912 2.912 0 0 0 2.013.808h18.173l-2.811 4.08a.862.862 0 0 0-.048.934c.08.148.2.271.347.357A.96.96 0 0 0 19 55h19a.96.96 0 0 0 .489-.13.915.915 0 0 0 .347-.356.858.858 0 0 0-.047-.935L35.975 49.5H54.15a2.912 2.912 0 0 0 2.013-.808A2.71 2.71 0 0 0 57 46.75v-44a2.71 2.71 0 0 0-.837-1.942A2.912 2.912 0 0 0 54.15 0ZM36.224 53.167H20.777l2.536-3.667h10.374l2.537 3.667ZM55.1 46.75a.9.9 0 0 1-.278.648.968.968 0 0 1-.672.269H2.85a.968.968 0 0 1-.672-.269.9.9 0 0 1-.278-.648V44h53.2v2.75Zm0-4.583H1.9V2.75a.9.9 0 0 1 .278-.648.968.968 0 0 1 .672-.269h51.3c.252 0 .494.097.672.269a.9.9 0 0 1 .278.648v39.417Z" fill="url(#d)"/><path d="m32.614 32.542-10.45-17.463a.929.929 0 0 0-.245-.271.966.966 0 0 0-.335-.16.993.993 0 0 0-.722.092l-3.287 1.833a.93.93 0 0 0-.443.559.897.897 0 0 0 .091.697l10.45 17.463a1 1 0 0 0 .58.43c.081.019.164.028.247.028.166-.003.329-.044.475-.12l3.287-1.833a.94.94 0 0 0 .281-.235.902.902 0 0 0 .19-.68.895.895 0 0 0-.12-.34Zm-3.762 1.035-9.5-15.876 1.643-.917 9.5 15.877-1.643.916Z" fill="url(#e)"/><path d="m20.14 9.854-.902-1.503a4.69 4.69 0 0 0-1.805-1.714l-3.924-2.1a.977.977 0 0 0-.94.01.948.948 0 0 0-.343.33.905.905 0 0 0-.133.449l-.075 4.326c-.012.83.208 1.647.636 2.366l.902 1.503a2.845 2.845 0 0 0 1.732 1.28c.73.19 1.508.092 2.163-.272l1.644-.916c.325-.18.609-.421.837-.708a2.72 2.72 0 0 0 .493-.963 2.655 2.655 0 0 0-.285-2.088Zm-1.558 1.614a.88.88 0 0 1-.16.322.915.915 0 0 1-.277.237l-1.643.916a.99.99 0 0 1-.723.088.955.955 0 0 1-.579-.427l-.902-1.503a2.665 2.665 0 0 1-.38-1.421l.047-2.796 2.546 1.357c.45.24.825.596 1.083 1.026l.893 1.504a.863.863 0 0 1 .095.696Z" fill="url(#f)"/><path d="M25.016 9.137a16.706 16.706 0 0 1 10.442-.104c3.396 1.082 6.324 3.222 8.324 6.082 2 2.861 2.96 6.282 2.729 9.726-.232 3.444-1.642 6.716-4.009 9.303a5.518 5.518 0 0 0-2.062-2.813 5.85 5.85 0 0 0-3.39-1.081.968.968 0 0 0-.672.268.9.9 0 0 0-.278.649.9.9 0 0 0 .278.648c.178.172.42.268.672.268a3.87 3.87 0 0 1 2.687 1.074 3.602 3.602 0 0 1 1.113 2.593c0 .087-.006.174-.019.26a.889.889 0 0 0 .09.545.933.933 0 0 0 .398.395.98.98 0 0 0 1.082-.12c3.122-2.685 5.18-6.333 5.825-10.32a16.906 16.906 0 0 0-2.295-11.54c-2.127-3.475-5.44-6.129-9.37-7.508a18.668 18.668 0 0 0-12.177-.057.94.94 0 0 0-.541.469.888.888 0 0 0-.04.7.93.93 0 0 0 .487.523.982.982 0 0 0 .726.038v.002Z" fill="url(#g)"/><path d="M23.046 33.031a11.571 11.571 0 0 1-3.99-1.898 11.13 11.13 0 0 1-2.934-3.228 10.74 10.74 0 0 1-1.43-4.065 10.625 10.625 0 0 1 .292-4.284.885.885 0 0 0-.081-.709.926.926 0 0 0-.246-.276.963.963 0 0 0-.713-.184.973.973 0 0 0-.635.364.904.904 0 0 0-.16.33 12.454 12.454 0 0 0 1.335 9.736c1.763 2.947 4.666 5.098 8.07 5.982a.97.97 0 0 0 .871-.194.891.891 0 0 0 .163-1.198.947.947 0 0 0-.542-.376Z" fill="url(#h)"/><defs><linearGradient id="a" x1="28.5" y1="0" x2="28.5" y2="55" gradientUnits="userSpaceOnUse"><stop stop-color="#36B1FF"/><stop offset="1" stop-color="#8843FB"/></linearGradient><linearGradient id="b" x1="28.5" y1="0" x2="28.5" y2="55" gradientUnits="userSpaceOnUse"><stop stop-color="#36B1FF"/><stop offset="1" stop-color="#8843FB"/></linearGradient><linearGradient id="c" x1="28.5" y1="0" x2="28.5" y2="55" gradientUnits="userSpaceOnUse"><stop stop-color="#36B1FF"/><stop offset="1" stop-color="#8843FB"/></linearGradient><linearGradient id="d" x1="28.5" y1="0" x2="28.5" y2="55" gradientUnits="userSpaceOnUse"><stop stop-color="#36B1FF"/><stop offset="1" stop-color="#8843FB"/></linearGradient><linearGradient id="e" x1="28.5" y1="0" x2="28.5" y2="55" gradientUnits="userSpaceOnUse"><stop stop-color="#36B1FF"/><stop offset="1" stop-color="#8843FB"/></linearGradient><linearGradient id="f" x1="28.5" y1="0" x2="28.5" y2="55" gradientUnits="userSpaceOnUse"><stop stop-color="#36B1FF"/><stop offset="1" stop-color="#8843FB"/></linearGradient><linearGradient id="g" x1="28.5" y1="0" x2="28.5" y2="55" gradientUnits="userSpaceOnUse"><stop stop-color="#36B1FF"/><stop offset="1" stop-color="#8843FB"/></linearGradient><linearGradient id="h" x1="28.5" y1="0" x2="28.5" y2="55" gradientUnits="userSpaceOnUse"><stop stop-color="#36B1FF"/><stop offset="1" stop-color="#8843FB"/></linearGradient></defs></svg>
